X: 34386
T: Ribbons Of The Redheaded Girl, The
R: reel
M: 4/4
K: Gdorian
G>F|:"Gm" D>GG>F G2A>F|G>Ac>d f2d>f|g>fd>c A>G A2|"Dm" F>GA2 "F" F>dE>d|
"Gm" D>G G2 G2A>F|G>Ac>d f2d>f|g>fd>c "F" A>G F>A|1 "Gm" {F}G>G G2G2G>F:|2 "Gm"{F}G>G G2G2A>c||
"Gm" d2d>e f2d>f|g>fd>e f2d>f|g>fd>c A>G A2|"Dm" F>GA2 "F" F>dE>d|
"Gm" D>G G2 G2A>F|G>Ac>d f2d>f|g>fd>c "F" A>G F>A|1 "Gm" {F}G>G G2G2 A>c:|2 "Gm" G>G G2G2 G<G||

